X:18
T:Pet of the Pipers
N:Jig     Allan's #18
N:Trad/Anon.Irish
B:Allan's Irish Fiddler (pub. Mozart Allen,  Glascow) date unknown
Z:FROM ALLAN'S TO NOTEWORTHY, FROM NOTEWORTHY TO ABC, MIDI AND .TXT BY VINCE
BRENNAN Dec. 2002 (HTTP://WWW.SOSYOURMOM.COM)
I:abc2nwc
M:6/8
L:1/8
K:A
E|A2A cBA|ecA aec|A2A cBA|BGE dBG|
A2A cBA|ecA aec|fga ecA|dBG A2:|
|:e|aga fga|fba gfe|aga fga|bag a2 {ef g}|
agf ecA|fed cBA|fga ecA|dBG A2:|
